X: 12
T: Eavesdropper, The
Z: benhockenberry
S: https://thesession.org/tunes/389#setting49384
R: jig
M: 6/8
L: 1/8
K: Gmaj
|:"G"D2B BAG|Bdd dBG|"C"cee dBA|"D"BAA AGE|
"G"D2B BAG|Bdd dBG|"C"cee "G"dBA|"D"AGF "G"G3:|
|:"G"g2g "D"afd|"C"efg "G"dBG|"C"cee "G"dBG|"G"BAG "D"ABd|
"G"g2g "D"afd|"C"efg "G"dBG|"C"cee "G"dBA|"D"AGF "G"G3:|

